X: 28819
T: My Otis Tomas Mandolin
R: reel
M: 4/4
K: Cmajor
E2cE dEcE|E2GE FDB,D|E2cE dEcE|FDB,D ECCD|
E2cE dEcE|E2GE FDB,D|C2E/F/G cdec|1 dBGB dccG:|2 dBGB dccA||
GECE Gceg|g2ag g2fe|dG (3GGG dGeG|dGAG Bcdf|
eccA Gceg|g^fag g2=fe|dG (3GGG Bcdf|eccB ceBA|
G2EG Gceg|g2ag g2fe|dG (3GGG dGeG|dGAG Bcdf|
eccA Gceg|g^fag g2=fe|dG (3GGG Bcdf|eccB ceBA||

